X: 79
T:MeQucrary Notthich Real
% Nottingham Music Database
S:Johniny diryss, via PR
M:2/4
L:1/4
K:Dm
a/4g/4 "D/f+"c/4d/4)/4a/4|"A7""Em"g/2g/2 "A"B/2d/2f/2|\
"d""c#"e/4c/4B/2 "A"c/2|"D"B/2A/2 c/2e/2|
"D"a/2f/2 d/2^f/2|"A"f/2a/2 a/2c/2|"D"f/2a/2 "E7"g/2=e/2|\
"A"e2 c/2B/2|"A"A/2A/2 A/2c/2|"G"B3/4B/4 B/2B/2:|
"G"B/4d/4f/4a/4 g/4f/4e/4d/4|"E"e/2d/4c/4 B/4B/4"A"c/2B/2|P6 "A"\"E"E A/4c/4|
"A"e/2f/2 e/2c/2|"A"A/2B/2 A/2c/2|"A"f/2a/4e/4 c/2A/2|"E7"B/4G/4E/4^c/4A/4 "A"E|\
E/4G/4c/4e/4 E/4d/4c/4d/4|
"A"e/2e/4c/4c/4 A/4(E/4E/4A/4c/4 c/2e/2|\
"Em"^e/2g/2 e/2c/2|
"A"e/2e/2 f/2a/2|g/2a/2 a/2g/2|"A"e/2f/2 g/2^e/2|"A"e/2c/2 "D"B/2f/2|"A"g/2B/2 "D"f/2(A/4f/4|\
"E"e3/2e/2 |
"A"A/4a/4g/4f/4 "A"e/2f/2|"D"d/2d/2 B/2d/2|"A"c/2d/2 c/2d/2|"D"a/2b/2 A/2B/2|\
"A"A A|

